X:1
T:Ich wünsche weder
T:Joachim a Burck
T:Source : Breitkopf & Härtel---Leipzig---R.Eitner---1898. First print : 20 Deutsche Liedlein zu 4 Stimmen---Erfurt---G.Baumann---1575. Editor : André Vierendeels (06/11/17).
T:-natural
T:Ich wünsche weder
T:©
T:©
T:©
T:©
T:©
T:©
C:Joachim a Burck
Z:©
%%score [ 1 2 3 4 ]
L:1/8
Q:1/4=120
M:4/4
K:C
V:1 treble nm="Soprano" snm="S"
V:2 treble nm="Alto" snm="A"
V:3 treble-8 nm="Tenor 1" snm="T 1"
V:4 treble-8 nm="Tenor 2" snm="T 2"
V:1
 z4 c4 | B3 c d4 | c2 e2 g4- | g2 fe ^f4 | g2 d4 e2- | ed c3 B AG | A4 B4 | z2 d4 c2 | B4 A4 | %9
w: Ich|wün- * *|sche, ich wün-||sche, ich wün-||* sche|we- der|Ehr noch|
 d2 g4 f2 | e4 d4 | g8 | z8 | z4 z2 c2- | c2 B4 A2 | B4 c4 | A4 G4 | ^F3 G A4 | z8 | z4 z2 c2- | %20
w: Gut, we- der|Ehr noch|Gut,||ohn|_ durch des|Her- ren|Chri- sti|Blut, _ _||ohn|
 c2 B4 A2 | B4 c4 | A4 G4 | ^F4 z2 A2 | B2 A2 d3 c | B2 A2 d4 | z8 | z4 d4 | e6 d2 | g3 f e2 d2- | %30
w: _ durch des|Her- ren|Chri- sti|Blut, der|all mein Ü- bel|und mein Schand,||der|all mein|Ü- * * bel|
 d2 c4 B2 | c4 z2 B2 | c2 B2 e3 d | c2 BA GA B2 | c2 B2 A2 GF | E4 e4 | e3 d cBAG | ^F2 G4 F2 | %38
w: _ und mein|Schand zum|ew' gen Gut _|_ _ _ _ _ _|* und Ehr, _ _|_ und|Ehr _ _ _ _ _|_ _ ge-|
 G4 z2 B2- | B2 c4 c2 | d2 d2 e4 | f2 e3 d/c/ d2 | e4 c4 | c4 d4 | edef g4 | z4 z2 d2- | d2 d2 B4 | %47
w: wand, drumb|_ wil ich|auch al- lein|den Herrn _ _ _|_ für|sol- ches|Gut, _ _ _ _|prei-|* sen und|
 e4 z2 c2- | c2 c2 A4 | d8 | z2 e4 d2- | d2 c2 B4 | c4 d4- | d2 d2 d4 | z2 e4 f2- | f2 e4 d2- | %56
w: ehrn, prei-|* sen und|ehrn,|des hel-|* fe mir|sein Gü-|* tig- keit,|und sey|_ ge- ehrt|
 d2 c4 d2- | dc c4 B2 | c2 e4 d2- | d2 c2 B4 | c4 d4- | d2 d2 d4 | z2 e4 f2- | f2 e4 d2- | %64
w: _ in E-|* * * wig-|keit, des hel-|* fe mir|sein Gü-|* tig- keit|und sey|_ ge- ehrt|
 d2 c4 d2- | dc c4 B2 | c4 c4 | c8- | c8 |] %69
w: _ in E-|* * * wig-|keit, A-|men.|_|
V:2
 G8 | G8 | E2 A2 B4 | G2 A2 A4 | D4 G2 G2 | E2 F2 D4 | z4 z2 G2- | G2 F2 E4- | E2 B,2 D2 A2 | %9
w: Ich|wün-|sche, ich wün-|sche, ich wün-|sche we- der|Ehr noch Gut,|we-|* der Ehr-|* noch Gut, we-|
 B2 c2 A4 | c4 z4 | B4 c2 G2- | G2 A2 A2 _B2- | BA G4 ^F2 | G2 D2 D4 | D2 G2 E2 C2- | C2 D2 E4 | %17
w: der Ehr noch|Gut,|ohn durch des|_ Her- ren Chri-|* * * sti|Blut, ohn durch|des Her- ren Chri-|* sti Blut,|
 z2 A4 A2- | A2 B2 c2 A2- | A2 G4 F2 | G2 D2 D4 | D2 G2 E2 C2- | C2 D2 E4 | z2 A,2 B,2 A,2 | %24
w: ohn durch|_ des Her- ren|_ Chri- sti|Blut, ohn durch|des Her- ren Chri-|* sti Blut,|der all mein|
 D3 C D2 ^F2 | ^F6 F2 |"^-natural" G3 F E2 D2- | D2 C4 B,2 | C4 z2 G2 | B4 c2 B2- | B2 A4 GF | %31
w: ü- bel und mein|Schand, der|all mein Ü- bel|_ und mein|Schand, der|all mein Ü-|* bel _ _|
 E2 F2 G4 | G4 z2 G2 | A2 GF E2 G2 | G3 F E2 DC | B,2 C2 G,2 GF | ED C4 E2 | D8 | D4 z2 G2- | %39
w: _ und mein|Schand zum|ew' _ _ _ gen|Gut, _ _ _ _|_ und Ehr, und _|_ _ Ehr _|ge-|wand, drumb|
 G2 G4 A2 | B2 B4 c2- | c2 c2 A3 B | c4 z2 G2 | A3 G A2 B2 | c4 B4 | G4 A4 | B4 z2 B2- | B2 B2 A4 | %48
w: _ wil ich|auch al- lein|_ den Hern _|_ für|sol- * * ches|Gut, für|sol- ches|Gut prei-|* sen und|
 A4 z2 A2- | A2 A2 B4 | G2 c4 B2 | A2 A4 ^G2 |"^b" AGFE DB, _B2- | B2 A2 _B4 | z2 c2 c4- | %55
w: ehrn prei-|* sen und|ehrn, des hel-|fe mir sein|Gü- * * * * * *|* tig- keit|und sey|
 c2 c2 A4 | A4 A4- | A2 F2 G4- | G2 c4 B2 | A2 A4 ^G2 |"^b" AGFE DB, _B2- | B2 A2 =B4 | z2 c2 c4- | %63
w: _ ge- ehrt|in E-|* wig- keit|_ des hel-|fe mir sein|Gü- * * * * * *|* tig- keit|und sey|
 c2 c2 A4 | A4 A4- | A2 GF G2 G2 | G4 A4- | A2 GF G2 A2 | G8 |] %69
w: _ ge- ehrt|in E-|* * * * wig-|keit, A-||men.|
V:3
 c4 e4- | e2 dc B4 | c4 d2 e2- | e2 dc d3 c | B2 A2 B4 | c4 z2 d2- | d2 d2 G2 G2 | A4 z2 a2- | %8
w: Ich wün-||sche, ich wün-|||sche we-|* der Ehr noch|Gut, we-|
 a2 g4 f2- | f2 e2 a4- | a2 gf g2 GA | Bc d2 e2 d2 | e4 f4 | d4 c4 | d2 g4 f2 | d2 e4 f2- | %16
w: * der Ehr|_ noch Gut,|_ _ _ _ ohn _|_ _ _ durch des|Her- ren|Chri- sti|Blut, ohn durch|des Her- ren|
 f2 d4 c2 | d4 z2 d2 |"^-natural" ^f2 g2 e2 f2 | d4 c4 | d2 g4 f2 | d2 e4 f2- |"^#" f2 d4 c2 | d8 | %24
w: _ Chri- sti|Blut, ohn|durch des Her- ren|Chri- sti|Blut, ohn durch|des Her- ren|_ Chri- sti|Blut,|
 z2 A2 B2 A2 | d3 c B2 A2 | G2 d2 B2 A2 | G6 ^F2 | G2 A2 B2 d2 | e2 d2 g3 f | e4 d4 | c3 d e4- | %32
w: der all mein|U¨- bel und mein|Schand, der all mein|Ü- bel|und mein Schand, der|all mein Ü- bel|und mein|Schand, _ _|
 e2 dc B4 | z2 B2 c2 B2 | e3 d c2 BA | G3 A B2 G2 | g3 f edcB | A3 G A2 A2 | G4 z2 d2- | d2 e4 c2 | %40
w: _ _ _ _|zum ew' gen|Gut _ _ _ _|_ _ _ und|Ehr _ _ _ _ _|_ _ _ ge-|wand, drumb|_ wil ich|
 g6 g2 | agfe f2 f2 | g4 e4 | f3 e f2 g2 | c4 d4 | e3 d e2 ^f2 | g4 z2 g2- | g2 g2 e4 | f4 z2 f2- | %49
w: auch al-|lein _ _ _ _ den|Herrn für|sol- * * ches|Gut, für|sol- * * ches|Gut prei-|* sen und|ehrn, prei-|
 f2 f2 d4 | e4 z2 g2 | f2 e2 e4- | e2 f4 g2- | g2 f2 g4 | z2 g2 a4- | a2 g2 f4 | e4 f4- | %57
w: * sen und|ehrn, des|hel- fe mir|_ sein Gü-|* tig- keit|und sey|_ ge- ehrt|in E-|
 f2 ed/c/ d2 d2 | c4 z2 g2 | f2 e2 e4- | e2 f4 g2- |"^#" g2 f2 g4 | z2 g2 a4- | a2 g2 f4 | e4 f4- | %65
w: * * * * * wig-|keit, des|hel- fe mir|_ sein Gü-|* tig- keit|und sey|_ ge- ehrt|in E-|
 f2 ed/c/ d2 d2 | e4 f4- | f2 ed e4 | e8 |] %69
w: * * * * * wig-|keit, A-||men.|
V:4
 z8 | G8 | A4 G4 | z4 D4 | G6 FE | A4 G2 G2- | G2 F2 E4 | D4 A4 | z4 z2 d2- | d2 c2 d4 | A2 c4 BA | %11
w: |Ich|wün- sche,|ich|wün- * *|* sche we-|* der Ehr|noch Gut,|we-|* der Ehr|noch Gut _ _|
 G2 G2 c2 B2 | c4 d4 | _B4 A4 | G4 z2 D2 | G2 E2 A2 A2 | F4 E4 | D4 d2 d2- | d2 G2 c2 d2 | _B4 A4 | %20
w: _ ohn durch des|Her- ren|Chri- sti|Blut, ohn|durch des Her- ren|Chri- sti|Blut, ohn durch|_ des Her- ren|Chri- sti|
 G4 z2 D2 | G2 E2 A2 A2 | F4 E4 | D8- | D8 | z4 D4 | E2 D2 G3 F | E4 D4 | C2 c2 G4 | G4 G4- | %30
w: Blut, ohn|durch des Her- ren|Chri- sti|Blut,|_|der|all mein Ü- bel|und mein|Schand, der all|mein Ü-|
 G2 A2 F2 G2 | A3 G/F/ E4 | z4 E4 | E8 | E4 E4 | E6 E2 | C8 | D8 | G4 z2 G2- | G2 c4 A2 | %40
w: * bel und mein|Schand, _ _ _|zum|e-|wi- gen|Gut und|Ehr|ge-|wand, drumb|_ wil ich|
 G3 F E2 C2 | c4 d4 | c8 | z8 | z4 G4 | c3 B c2 d2 | G2 G4 G2 | E4 A4 | z2 F4 F2 | D4 G4 | %50
w: auch _ _ al-|lein den|Herrn||für|sol- * * ches|Gut, prei- sen|und erhn,|prei- sen|und ehrn,|
 z2 c2 G4 | A4 E4 | A4 _B2 AG | d2 d2 G4 | z2 c2 A2 F2 | c4 d4 | A3 G F2 ED | A4 G4 | C2 C2 G4 | %59
w: des hel-|fe mir|sein Gü- * *|* tig- keit|und sey ge-|ehrt in|E- * * * *|* wig-|keit, des hel-|
 A4 E4 | A4 _B2 AG | d2 d2 G4 | z2 c2 A2 F2 | c4 d4 | A3 G F2 ED | A4 G4 | C4 F4 | C8- | C8 |] %69
w: fe mir|sein Gü- * *|* tig- keit|und sey ge-|ehrt in|E- * * * *|* wig-|keit, A-|men.|_|

